docs/img/all-services/4.svg

<svg width="80" height="80" viewBox="0 0 80 80" fill="none" xmlns="http://www.w3.org/2000/svg">
<path d="M71.8016 29.7826C72.9345 29.7826 73.8881 28.9352 74.0199 27.8098L75.8993 11.8136H68.4046H60.9102L62.7896 27.8098C62.9214 28.9352 63.8755 29.7826 65.0078 29.7826H71.8016Z" stroke="#0098D0" stroke-width="2" stroke-miterlimit="10" stroke-linecap="round" stroke-linejoin="round"/>
<path d="M25.0039 61.1355V69.0078C25.0039 72.7136 28.0077 75.7174 31.7135 75.7174H61.6966C65.4018 75.7174 68.4056 72.7135 68.4056 69.0083V34.5588" stroke="#0098D0" stroke-width="2" stroke-miterlimit="10" stroke-linecap="round" stroke-linejoin="round"/>
<path d="M68.4039 34.5588C67.2057 34.5588 66.1726 33.7171 65.9302 32.5441L65.3594 29.7826H71.4489L70.8779 32.5441C70.6349 33.7177 69.6021 34.5588 68.4039 34.5588Z" stroke="#0098D0" stroke-width="2" stroke-miterlimit="10" stroke-linecap="round" stroke-linejoin="round"/>
<path d="M75.8973 11.8136H77.3357C78.1127 11.8136 78.6965 11.1047 78.5475 10.342L77.8427 6.72682C77.5665 5.30857 76.3243 4.28571 74.8791 4.28571H68.4025H61.9263C60.4817 4.28571 59.2394 5.30857 58.9627 6.72682L58.2578 10.342C58.1083 11.1047 58.6926 11.8136 59.4697 11.8136H60.9081" stroke="#0098D0" stroke-width="2" stroke-miterlimit="10" stroke-linecap="round" stroke-linejoin="round"/>
<path d="M39.7527 61.1355H10.2537C8.80622 61.1355 7.63281 59.9619 7.63281 58.5144V52.9961C7.63281 51.5486 8.80622 50.3751 10.2537 50.3751H39.7527C41.2008 50.3751 42.3739 51.5486 42.3739 52.9961V58.5144C42.3739 59.9619 41.2008 61.1355 39.7527 61.1355Z" stroke="#0098D0" stroke-width="2" stroke-miterlimit="10" stroke-linecap="round" stroke-linejoin="round"/>
<path d="M20.5703 55.7559H29.4358" stroke="#0098D0" stroke-width="2" stroke-miterlimit="10" stroke-linecap="round" stroke-linejoin="round"/>
<path d="M44.6666 41.6535H5.33653C3.1785 41.6535 1.42969 39.9041 1.42969 37.7473V15.6018C1.42969 13.4438 3.17965 11.6949 5.33653 11.6949H44.6666C46.8246 11.6949 48.5735 13.4438 48.5735 15.6012V37.7473C48.5735 39.9053 46.8246 41.6535 44.6666 41.6535Z" stroke="#0098D0" stroke-width="2" stroke-miterlimit="10" stroke-linecap="round" stroke-linejoin="round"/>
<path d="M6.67578 16.6488H10.8831" stroke="#0098D0" stroke-width="2" stroke-miterlimit="10" stroke-linecap="round" stroke-linejoin="round"/>
<path d="M6.67578 20.6926H8.7796" stroke="#0098D0" stroke-width="2" stroke-miterlimit="10" stroke-linecap="round" stroke-linejoin="round"/>
<path d="M30.7518 18.5806C30.4761 18.5061 30.1919 18.4567 29.9026 18.435C26.8793 18.2052 25.5223 21.2503 25.5223 21.2503C25.5223 21.2503 24.1965 18.1909 21.1703 18.3898C19.5583 18.4958 18.1091 19.4446 17.3664 20.8783C16.8874 21.8032 16.6096 23.069 17.1213 24.6506C17.3064 25.2225 17.5797 25.7612 17.9212 26.2534C18.0525 26.4437 18.1933 26.6282 18.344 26.8035C19.0105 27.5788 20.2779 28.8234 21.5466 29.891C21.5466 29.891 24.7025 32.4743 25.4543 34.1848C26.225 32.4823 29.4065 29.9317 29.4065 29.9317C30.3634 29.1432 31.2657 28.3111 31.97 27.592" stroke="#0098D0" stroke-width="2" stroke-miterlimit="10" stroke-linecap="round" stroke-linejoin="round"/>
<path d="M13.3508 22.2009L7.32812 29.9173C11.5892 33.9182 16.9053 36.1381 22.34 36.5862" stroke="#0098D0" stroke-width="2" stroke-miterlimit="10" stroke-linecap="round" stroke-linejoin="round"/>
<path d="M28.5977 36.4894C33.7034 35.8751 38.6572 33.6885 42.673 29.9174L38.0585 24.0048" stroke="#0098D0" stroke-width="2" stroke-miterlimit="10" stroke-linecap="round" stroke-linejoin="round"/>
<path d="M35.7674 17.9266L32.5595 20.6554L34.0097 22.3602L29.9453 25.8178" stroke="#0098D0" stroke-width="2" stroke-miterlimit="10" stroke-linecap="round" stroke-linejoin="round"/>
<path d="M25.0039 50.3751V41.6536" stroke="#0098D0" stroke-width="2" stroke-miterlimit="10" stroke-linecap="round" stroke-linejoin="round"/>
</svg>

<svg width="80" height="80" fill="none" xmlns="http://www.w3.org/2000/svg"><path d="M71.802 29.783a2.233 2.233 0 002.218-1.973l1.88-15.996H60.91l1.88 15.996a2.233 2.233 0 002.218 1.973h6.794zM25.004 61.136v7.872a6.71 6.71 0 006.71 6.71h29.983a6.71 6.71 0 006.709-6.71v-34.45" stroke="#0098D0" stroke-width="2" stroke-miterlimit="10" stroke-linecap="round" stroke-linejoin="round"/><path d="M68.404 34.559a2.526 2.526 0 01-2.474-2.015l-.57-2.761h6.089l-.571 2.761a2.526 2.526 0 01-2.474 2.015zm7.493-22.745h1.439c.777 0 1.36-.71 1.212-1.472l-.705-3.615a3.018 3.018 0 00-2.964-2.441H61.926a3.02 3.02 0 00-2.963 2.44l-.705 3.616a1.234 1.234 0 001.212 1.472h1.438M39.753 61.136h-29.5a2.621 2.621 0 01-2.62-2.622v-5.518a2.621 2.621 0 012.62-2.62h29.5a2.62 2.62 0 012.62 2.62v5.518a2.62 2.62 0 01-2.62 2.621zm-19.183-5.38h8.866m15.231-14.102H5.337a3.907 3.907 0 01-3.907-3.907V15.602a3.907 3.907 0 013.907-3.907h39.33a3.906 3.906 0 013.907 3.906v22.146a3.906 3.906 0 01-3.907 3.907zM6.676 16.649h4.207m-4.207 4.044H8.78" stroke="#0098D0" stroke-width="2" stroke-miterlimit="10" stroke-linecap="round" stroke-linejoin="round"/><path d="M30.752 18.58a4.564 4.564 0 00-.85-.145c-3.023-.23-4.38 2.815-4.38 2.815s-1.325-3.06-4.352-2.86a4.638 4.638 0 00-3.804 2.488c-.479.925-.756 2.191-.245 3.773a6.13 6.13 0 00.8 1.602c.131.19.272.375.423.55.666.776 1.934 2.02 3.203 3.088 0 0 3.155 2.583 3.907 4.294.771-1.703 3.953-4.253 3.953-4.253a33.688 33.688 0 002.563-2.34M13.35 22.2l-6.022 7.717a24.854 24.854 0 0015.012 6.67m6.258-.097a24.833 24.833 0 0014.075-6.573l-4.614-5.912" stroke="#0098D0" stroke-width="2" stroke-miterlimit="10" stroke-linecap="round" stroke-linejoin="round"/><path d="M35.767 17.927l-3.208 2.728 1.45 1.705-4.064 3.458m-4.941 24.557v-8.721" stroke="#0098D0" stroke-width="2" stroke-miterlimit="10" stroke-linecap="round" stroke-linejoin="round"/></svg>
